src/icons/harbor.svg

<?xml version="1.0" encoding="UTF-8"?>
<svg xmlns="http://www.w3.org/2000/svg" xmlns:xlink="http://www.w3.org/1999/xlink" width="31.800918" height="32" viewBox="0 0 31.800918 32" version="1.1">
<defs>
<clipPath id="clip1">
  <path d="M 8 24 L 16 24 L 16 31 L 8 31 Z M 8 24 "/>
</clipPath>
<clipPath id="clip2">
  <path d="M 15.339844 26.941406 L 9.265625 24.261719 L 8.925781 28.085938 L 15.605469 30.207031 Z M 15.339844 26.941406 "/>
</clipPath>
<linearGradient id="linear0" gradientUnits="userSpaceOnUse" x1="264.790009" y1="952.390015" x2="267.269989" y2="952.390015" gradientTransform="matrix(2.692474,0,0,-2.692474,-703.977892,2591.401843)">
<stop offset="0" style="stop-color:rgb(37.64706%,72.549021%,19.607843%);stop-opacity:1;"/>
<stop offset="0.28" style="stop-color:rgb(37.64706%,72.549021%,19.607843%);stop-opacity:1;"/>
<stop offset="1" style="stop-color:rgb(21.176471%,48.627451%,20.392157%);stop-opacity:1;"/>
</linearGradient>
<clipPath id="clip3">
  <path d="M 9 8 L 16 8 L 16 21 L 9 21 Z M 9 8 "/>
</clipPath>
<clipPath id="clip4">
  <path d="M 10.453125 12.152344 L 13.863281 12.152344 L 13.863281 15.0625 L 13.054688 15.0625 L 13.054688 13.824219 C 13.054688 13.328125 12.652344 12.925781 12.15625 12.925781 C 11.664062 12.925781 11.261719 13.328125 11.261719 13.824219 L 11.261719 15.0625 L 10.453125 15.0625 Z M 9.773438 18.523438 L 14.832031 20.753906 L 14.484375 16.484375 L 15.148438 16.484375 L 15.148438 15.0625 L 14.65625 15.0625 L 14.65625 12.152344 L 15.148438 12.152344 L 15.148438 11.316406 L 12.417969 8.644531 L 12.417969 8.457031 C 12.417969 8.3125 12.300781 8.199219 12.160156 8.199219 C 12.015625 8.199219 11.902344 8.3125 11.902344 8.457031 L 11.902344 8.644531 L 9.171875 11.316406 L 9.171875 12.152344 L 9.664062 12.152344 L 9.664062 15.0625 L 9.171875 15.0625 L 9.171875 16.488281 L 9.953125 16.488281 Z M 9.773438 18.523438 "/>
</clipPath>
<linearGradient id="linear1" gradientUnits="userSpaceOnUse" x1="263.769989" y1="955.650024" x2="266.26001" y2="955.650024" gradientTransform="matrix(2.407565,0,0,-2.407565,-625.993477,2315.665311)">
<stop offset="0" style="stop-color:rgb(37.64706%,72.549021%,19.607843%);stop-opacity:1;"/>
<stop offset="0.28" style="stop-color:rgb(37.64706%,72.549021%,19.607843%);stop-opacity:1;"/>
<stop offset="1" style="stop-color:rgb(21.176471%,48.627451%,20.392157%);stop-opacity:1;"/>
</linearGradient>
<clipPath id="clip5">
  <path d="M 9 20 L 16 20 L 16 25 L 9 25 Z M 9 20 "/>
</clipPath>
<clipPath id="clip6">
  <path d="M 9.476562 21.875 L 15.128906 24.367188 L 15.042969 23.328125 L 9.558594 20.914062 Z M 9.476562 21.875 "/>
</clipPath>
<linearGradient id="linear2" gradientUnits="userSpaceOnUse" x1="263.279999" y1="953.73999" x2="265.76001" y2="953.73999" gradientTransform="matrix(2.278383,0,0,-2.278383,-590.360433,2195.580841)">
<stop offset="0" style="stop-color:rgb(37.64706%,72.549021%,19.607843%);stop-opacity:1;"/>
<stop offset="0.28" style="stop-color:rgb(37.64706%,72.549021%,19.607843%);stop-opacity:1;"/>
<stop offset="1" style="stop-color:rgb(21.176471%,48.627451%,20.392157%);stop-opacity:1;"/>
</linearGradient>
<clipPath id="clip7">
  <path d="M 9 22 L 16 22 L 16 27 L 9 27 Z M 9 22 "/>
</clipPath>
<clipPath id="clip8">
  <path d="M 9.328125 23.550781 L 15.273438 26.171875 L 15.191406 25.136719 L 9.410156 22.589844 Z M 9.328125 23.550781 "/>
</clipPath>
<linearGradient id="linear3" gradientUnits="userSpaceOnUse" x1="263.769989" y1="953.200012" x2="266.25" y2="953.200012" gradientTransform="matrix(2.397832,0,0,-2.397832,-623.078014,2309.744177)">
<stop offset="0" style="stop-color:rgb(37.64706%,72.549021%,19.607843%);stop-opacity:1;"/>
<stop offset="0.28" style="stop-color:rgb(37.64706%,72.549021%,19.607843%);stop-opacity:1;"/>
<stop offset="1" style="stop-color:rgb(21.176471%,48.627451%,20.392157%);stop-opacity:1;"/>
</linearGradient>
<clipPath id="clip9">
  <path d="M 9 19 L 15 19 L 15 23 L 9 23 Z M 9 19 "/>
</clipPath>
<clipPath id="clip10">
  <path d="M 9.707031 19.238281 L 9.625 20.199219 L 14.980469 22.5625 L 14.894531 21.523438 Z M 9.707031 19.238281 "/>
</clipPath>
<linearGradient id="linear4" gradientUnits="userSpaceOnUse" x1="262.730011" y1="954.340027" x2="265.209991" y2="954.340027" gradientTransform="matrix(2.158934,0,0,-2.158934,-557.642851,2081.417505)">
<stop offset="0" style="stop-color:rgb(37.64706%,72.549021%,19.607843%);stop-opacity:1;"/>
<stop offset="0.28" style="stop-color:rgb(37.64706%,72.549021%,19.607843%);stop-opacity:1;"/>
<stop offset="1" style="stop-color:rgb(21.176471%,48.627451%,20.392157%);stop-opacity:1;"/>
</linearGradient>
<clipPath id="clip11">
  <path d="M 15 3 L 28 3 L 28 14 L 15 14 Z M 15 3 "/>
</clipPath>
<clipPath id="clip12">
  <path d="M 27.613281 6.152344 C 26.835938 5.222656 25.953125 4.386719 24.980469 3.664062 C 24.84375 3.558594 24.699219 3.460938 24.558594 3.363281 L 22.558594 5.4375 L 15.273438 13.015625 L 25.308594 7.820312 L 27.878906 6.496094 C 27.789062 6.378906 27.703125 6.261719 27.613281 6.152344 Z M 27.613281 6.152344 "/>
</clipPath>
<linearGradient id="linear5" gradientUnits="userSpaceOnUse" x1="272.140015" y1="955.150024" x2="274.619995" y2="955.150024" gradientTransform="matrix(4.699501,-3.479987,-3.479987,-4.699501,2060.580213,5448.676581)">
<stop offset="0" style="stop-color:rgb(27.058825%,58.823532%,84.705883%);stop-opacity:1;"/>
<stop offset="0.2" style="stop-color:rgb(27.058825%,58.823532%,84.705883%);stop-opacity:1;"/>
<stop offset="1" style="stop-color:rgb(100%,100%,100%);stop-opacity:1;"/>
</linearGradient>
<clipPath id="clip13">
  <path d="M 15 14 L 32 14 L 32 20 L 15 20 Z M 15 14 "/>
</clipPath>
<clipPath id="clip14">
  <path d="M 31.191406 15.886719 C 31.191406 15.710938 31.179688 15.535156 31.171875 15.363281 L 28.324219 15.160156 L 15.273438 14.222656 L 28.074219 18.664062 L 30.765625 19.597656 C 30.773438 19.566406 30.785156 19.535156 30.792969 19.503906 C 31.058594 18.359375 31.195312 17.1875 31.195312 16.011719 L 31.195312 15.890625 Z M 31.191406 15.886719 "/>
</clipPath>
<linearGradient id="linear6" gradientUnits="userSpaceOnUse" x1="270.649994" y1="952.380005" x2="273.130005" y2="952.380005" gradientTransform="matrix(6.744659,1.377121,1.377121,-6.744659,-3121.816496,6066.372794)">
<stop offset="0" style="stop-color:rgb(25.490198%,58.039218%,84.313726%);stop-opacity:1;"/>
<stop offset="0.2" style="stop-color:rgb(25.490198%,58.039218%,84.313726%);stop-opacity:1;"/>
<stop offset="1" style="stop-color:rgb(100%,100%,100%);stop-opacity:1;"/>
</linearGradient>
<clipPath id="clip15">
  <path d="M 15 9 L 31 9 L 31 14 L 15 14 Z M 15 9 "/>
</clipPath>
<clipPath id="clip16">
  <path d="M 30.773438 12.4375 C 30.496094 11.28125 30.085938 10.160156 29.546875 9.101562 L 26.8125 9.980469 L 15.472656 13.621094 L 28.035156 13.195312 L 30.914062 13.097656 C 30.867188 12.875 30.824219 12.65625 30.773438 12.4375 Z M 30.773438 12.4375 "/>
</clipPath>
<linearGradient id="linear7" gradientUnits="userSpaceOnUse" x1="270.970001" y1="953.75" x2="273.450012" y2="953.75" gradientTransform="matrix(6.21275,-1.121209,-1.121209,-6.21275,-599.170903,6244.278374)">
<stop offset="0" style="stop-color:rgb(25.490198%,58.039218%,84.313726%);stop-opacity:1;"/>
<stop offset="0.33" style="stop-color:rgb(26.666668%,58.823532%,84.705883%);stop-opacity:1;"/>
<stop offset="1" style="stop-color:rgb(100%,100%,100%);stop-opacity:1;"/>
</linearGradient>
</defs>
<g id="surface1">
<path style=" stroke:none;fill-rule:nonzero;fill:rgb(100%,100%,100%);fill-opacity:1;" d="M 2.640625 16.011719 C 2.640625 8.734375 8.535156 2.835938 15.8125 2.835938 C 23.085938 2.835938 28.984375 8.734375 28.984375 16.007812 C 28.984375 23.285156 23.085938 29.179688 15.8125 29.179688 C 8.539062 29.179688 2.640625 23.285156 2.640625 16.011719 "/>
<g clip-path="url(#clip1)" clip-rule="nonzero">
<g clip-path="url(#clip2)" clip-rule="nonzero">
<path style=" stroke:none;fill-rule:nonzero;fill:url(#linear0);" d="M 15.339844 26.941406 L 9.265625 24.261719 L 8.925781 28.085938 L 15.605469 30.210938 L 15.339844 26.941406 "/>
</g>
</g>
<g clip-path="url(#clip3)" clip-rule="nonzero">
<g clip-path="url(#clip4)" clip-rule="nonzero">
<path style=" stroke:none;fill-rule:nonzero;fill:url(#linear1);" d="M 10.453125 12.152344 L 13.863281 12.152344 L 13.863281 15.0625 L 13.054688 15.0625 L 13.054688 13.824219 C 13.054688 13.328125 12.652344 12.925781 12.15625 12.925781 C 11.664062 12.925781 11.261719 13.328125 11.261719 13.824219 L 11.261719 15.0625 L 10.453125 15.0625 Z M 9.773438 18.523438 L 14.832031 20.753906 L 14.484375 16.484375 L 15.148438 16.484375 L 15.148438 15.0625 L 14.65625 15.0625 L 14.65625 12.152344 L 15.148438 12.152344 L 15.148438 11.316406 L 12.417969 8.644531 L 12.417969 8.457031 C 12.417969 8.3125 12.300781 8.199219 12.160156 8.199219 C 12.015625 8.199219 11.902344 8.3125 11.902344 8.457031 L 11.902344 8.644531 L 9.171875 11.316406 L 9.171875 12.152344 L 9.664062 12.152344 L 9.664062 15.0625 L 9.171875 15.0625 L 9.171875 16.488281 L 9.953125 16.488281 L 9.773438 18.523438 "/>
</g>
</g>
<g clip-path="url(#clip5)" clip-rule="nonzero">
<g clip-path="url(#clip6)" clip-rule="nonzero">
<path style=" stroke:none;fill-rule:nonzero;fill:url(#linear2);" d="M 9.472656 21.875 L 15.125 24.367188 L 15.039062 23.328125 L 9.550781 20.914062 L 9.464844 21.875 "/>
</g>
</g>
<g clip-path="url(#clip7)" clip-rule="nonzero">
<g clip-path="url(#clip8)" clip-rule="nonzero">
<path style=" stroke:none;fill-rule:nonzero;fill:url(#linear3);" d="M 9.328125 23.550781 L 15.273438 26.171875 L 15.1875 25.136719 L 9.40625 22.589844 L 9.320312 23.550781 "/>
</g>
</g>
<g clip-path="url(#clip9)" clip-rule="nonzero">
<g clip-path="url(#clip10)" clip-rule="nonzero">
<path style=" stroke:none;fill-rule:nonzero;fill:url(#linear4);" d="M 9.707031 19.238281 L 9.621094 20.199219 L 14.980469 22.558594 L 14.890625 21.519531 L 9.703125 19.234375 "/>
</g>
</g>
<path style=" stroke:none;fill-rule:nonzero;fill:rgb(0%,0%,0%);fill-opacity:1;" d="M 26.8125 9.980469 L 29.546875 9.101562 C 29.539062 9.082031 29.53125 9.0625 29.519531 9.042969 C 29.058594 8.140625 28.507812 7.285156 27.878906 6.492188 L 25.304688 7.820312 C 25.871094 8.46875 26.367188 9.179688 26.785156 9.929688 C 26.796875 9.945312 26.800781 9.960938 26.8125 9.976562 "/>
<path style=" stroke:none;fill-rule:nonzero;fill:rgb(0%,0%,0%);fill-opacity:1;" d="M 28.324219 15.160156 L 31.171875 15.363281 C 31.140625 14.601562 31.050781 13.847656 30.90625 13.097656 L 28.03125 13.195312 C 28.179688 13.84375 28.277344 14.5 28.320312 15.160156 "/>
<path style=" stroke:none;fill-rule:nonzero;fill:rgb(0%,0%,0%);fill-opacity:1;" d="M 16.011719 28.558594 C 9.089844 28.558594 3.460938 22.929688 3.460938 16.007812 C 3.460938 9.089844 9.09375 3.460938 16.011719 3.460938 C 18.402344 3.457031 20.746094 4.144531 22.761719 5.4375 L 24.757812 3.359375 C 22.1875 1.574219 19.136719 0.621094 16.011719 0.625 C 7.53125 0.625 0.628906 7.527344 0.628906 16.011719 C 0.628906 24.496094 7.53125 31.394531 16.011719 31.394531 C 23.257812 31.394531 29.34375 26.351562 30.964844 19.597656 L 28.277344 18.664062 C 27.054688 24.3125 22.019531 28.558594 16.011719 28.558594 "/>
<g clip-path="url(#clip11)" clip-rule="nonzero">
<g clip-path="url(#clip12)" clip-rule="nonzero">
<path style=" stroke:none;fill-rule:nonzero;fill:url(#linear5);" d="M 27.613281 6.152344 C 26.835938 5.222656 25.953125 4.386719 24.980469 3.664062 C 24.84375 3.558594 24.699219 3.460938 24.558594 3.363281 L 22.558594 5.4375 L 15.273438 13.015625 L 25.308594 7.820312 L 27.878906 6.496094 C 27.789062 6.382812 27.703125 6.265625 27.613281 6.15625 "/>
</g>
</g>
<g clip-path="url(#clip13)" clip-rule="nonzero">
<g clip-path="url(#clip14)" clip-rule="nonzero">
<path style=" stroke:none;fill-rule:nonzero;fill:url(#linear6);" d="M 31.191406 15.886719 C 31.191406 15.710938 31.179688 15.535156 31.171875 15.363281 L 28.324219 15.160156 L 15.273438 14.222656 L 28.074219 18.664062 L 30.765625 19.597656 C 30.773438 19.566406 30.785156 19.535156 30.792969 19.503906 C 31.058594 18.359375 31.195312 17.1875 31.195312 16.011719 L 31.195312 15.890625 "/>
</g>
</g>
<g clip-path="url(#clip15)" clip-rule="nonzero">
<g clip-path="url(#clip16)" clip-rule="nonzero">
<path style=" stroke:none;fill-rule:nonzero;fill:url(#linear7);" d="M 30.773438 12.4375 C 30.496094 11.28125 30.085938 10.160156 29.546875 9.101562 L 26.8125 9.980469 L 15.472656 13.621094 L 28.035156 13.195312 L 30.914062 13.097656 C 30.871094 12.875 30.824219 12.652344 30.773438 12.433594 "/>
</g>
</g>
</g>
</svg>

<svg role="img" viewBox="0 0 31.801 32" xmlns="http://www.w3.org/2000/svg" xmlns:xlink="http://www.w3.org/1999/xlink"><defs><clipPath id="a"><path d="M8 24h8v7H8Zm0 0"/></clipPath><clipPath id="b"><path d="m15.34 26.941-6.074-2.68-.34 3.825 6.68 2.121Zm0 0"/></clipPath><clipPath id="d"><path d="M9 8h7v13H9Zm0 0"/></clipPath><clipPath id="e"><path d="M10.453 12.152h3.41v2.91h-.808v-1.238a.899.899 0 0 0-.899-.898.898.898 0 0 0-.894.898v1.239h-.809Zm-.68 6.371 5.059 2.23-.348-4.269h.664v-1.422h-.492v-2.91h.492v-.836l-2.73-2.671v-.188a.258.258 0 0 0-.258-.258.255.255 0 0 0-.258.258v.188l-2.73 2.671v.836h.492v2.91h-.492v1.426h.781Zm0 0"/></clipPath><clipPath id="g"><path d="M9 20h7v5H9Zm0 0"/></clipPath><clipPath id="h"><path d="m9.477 21.875 5.652 2.492-.086-1.039-5.484-2.414Zm0 0"/></clipPath><clipPath id="j"><path d="M9 22h7v5H9Zm0 0"/></clipPath><clipPath id="k"><path d="m9.328 23.55 5.945 2.622-.082-1.035-5.78-2.547Zm0 0"/></clipPath><clipPath id="m"><path d="M9 19h6v4H9Zm0 0"/></clipPath><clipPath id="n"><path d="m9.707 19.238-.082.961 5.355 2.363-.085-1.039Zm0 0"/></clipPath><clipPath id="p"><path d="M15 3h13v11H15Zm0 0"/></clipPath><clipPath id="q"><path d="M27.613 6.152a15.423 15.423 0 0 0-2.633-2.488c-.136-.105-.28-.203-.421-.3l-2 2.074-7.286 7.578L25.31 7.82l2.57-1.324c-.09-.117-.176-.234-.266-.344m0 0"/></clipPath><clipPath id="s"><path d="M15 14h17v6H15Zm0 0"/></clipPath><clipPath id="t"><path d="M31.191 15.887c0-.176-.011-.352-.02-.524l-2.847-.203-13.05-.937 12.8 4.441 2.692.934c.007-.032.02-.063.027-.094.266-1.145.402-2.317.402-3.492v-.121Zm0 0"/></clipPath><clipPath id="v"><path d="M15 9h16v5H15Zm0 0"/></clipPath><clipPath id="w"><path d="M30.773 12.438a15.127 15.127 0 0 0-1.226-3.336l-2.735.878-11.34 3.641 12.563-.426 2.88-.097c-.048-.223-.09-.442-.142-.66m0 0"/></clipPath><linearGradient gradientTransform="matrix(2.69247 0 0 -2.69247 -703.978 2591.402)" gradientUnits="userSpaceOnUse" id="c" x1="264.79" x2="267.27" y1="952.39" y2="952.39"><stop offset="0" style="stop-color:rgb(37.64706%,72.549021%,19.607843%);stop-opacity:1"/><stop offset=".28" style="stop-color:rgb(37.64706%,72.549021%,19.607843%);stop-opacity:1"/><stop offset="1" style="stop-color:rgb(21.176471%,48.627451%,20.392157%);stop-opacity:1"/></linearGradient><linearGradient gradientTransform="matrix(2.40756 0 0 -2.40756 -625.993 2315.665)" gradientUnits="userSpaceOnUse" id="f" x1="263.77" x2="266.26" y1="955.65" y2="955.65"><stop offset="0" style="stop-color:rgb(37.64706%,72.549021%,19.607843%);stop-opacity:1"/><stop offset=".28" style="stop-color:rgb(37.64706%,72.549021%,19.607843%);stop-opacity:1"/><stop offset="1" style="stop-color:rgb(21.176471%,48.627451%,20.392157%);stop-opacity:1"/></linearGradient><linearGradient gradientTransform="matrix(2.27838 0 0 -2.27838 -590.36 2195.58)" gradientUnits="userSpaceOnUse" id="i" x1="263.28" x2="265.76" y1="953.74" y2="953.74"><stop offset="0" style="stop-color:rgb(37.64706%,72.549021%,19.607843%);stop-opacity:1"/><stop offset=".28" style="stop-color:rgb(37.64706%,72.549021%,19.607843%);stop-opacity:1"/><stop offset="1" style="stop-color:rgb(21.176471%,48.627451%,20.392157%);stop-opacity:1"/></linearGradient><linearGradient gradientTransform="matrix(2.39783 0 0 -2.39783 -623.078 2309.744)" gradientUnits="userSpaceOnUse" id="l" x1="263.77" x2="266.25" y1="953.2" y2="953.2"><stop offset="0" style="stop-color:rgb(37.64706%,72.549021%,19.607843%);stop-opacity:1"/><stop offset=".28" style="stop-color:rgb(37.64706%,72.549021%,19.607843%);stop-opacity:1"/><stop offset="1" style="stop-color:rgb(21.176471%,48.627451%,20.392157%);stop-opacity:1"/></linearGradient><linearGradient gradientTransform="matrix(2.15893 0 0 -2.15893 -557.643 2081.418)" gradientUnits="userSpaceOnUse" id="o" x1="262.73" x2="265.21" y1="954.34" y2="954.34"><stop offset="0" style="stop-color:rgb(37.64706%,72.549021%,19.607843%);stop-opacity:1"/><stop offset=".28" style="stop-color:rgb(37.64706%,72.549021%,19.607843%);stop-opacity:1"/><stop offset="1" style="stop-color:rgb(21.176471%,48.627451%,20.392157%);stop-opacity:1"/></linearGradient><linearGradient gradientTransform="scale(5.8477 -5.8477)rotate(36.52 1588.19 68.11)" gradientUnits="userSpaceOnUse" id="r" x1="272.14" x2="274.62" y1="955.15" y2="955.15"><stop offset="0" style="stop-color:rgb(27.058825%,58.823532%,84.705883%);stop-opacity:1"/><stop offset=".2" style="stop-color:rgb(27.058825%,58.823532%,84.705883%);stop-opacity:1"/><stop offset="1" style="stop-color:rgb(100%,100%,100%);stop-opacity:1"/></linearGradient><linearGradient gradientTransform="scale(6.88381 -6.88381)rotate(-11.54 -4587.339 1803.377)" gradientUnits="userSpaceOnUse" id="u" x1="270.65" x2="273.13" y1="952.38" y2="952.38"><stop offset="0" style="stop-color:rgb(25.490198%,58.039218%,84.313726%);stop-opacity:1"/><stop offset=".2" style="stop-color:rgb(25.490198%,58.039218%,84.313726%);stop-opacity:1"/><stop offset="1" style="stop-color:rgb(100%,100%,100%);stop-opacity:1"/></linearGradient><linearGradient gradientTransform="scale(6.31311 -6.31311)rotate(10.23 5477.514 -1024.698)" gradientUnits="userSpaceOnUse" id="x" x1="270.97" x2="273.45" y1="953.75" y2="953.75"><stop offset="0" style="stop-color:rgb(25.490198%,58.039218%,84.313726%);stop-opacity:1"/><stop offset=".33" style="stop-color:rgb(26.666668%,58.823532%,84.705883%);stop-opacity:1"/><stop offset="1" style="stop-color:rgb(100%,100%,100%);stop-opacity:1"/></linearGradient></defs><path d="M2.64 16.012c0-7.278 5.895-13.176 13.173-13.176 7.273 0 13.171 5.898 13.171 13.172 0 7.277-5.898 13.172-13.172 13.172-7.273 0-13.171-5.895-13.171-13.168" style="stroke:none;fill-rule:nonzero;fill:rgb(100%,100%,100%);fill-opacity:1"/><g clip-path="url(#a)"><g clip-path="url(#b)"><path d="m15.34 26.941-6.074-2.68-.34 3.825 6.68 2.125z" style="stroke:none;fill-rule:nonzero;fill:url(#c)"/></g></g><g clip-path="url(#d)"><g clip-path="url(#e)"><path d="M10.453 12.152h3.41v2.91h-.808v-1.238a.899.899 0 0 0-.899-.898.898.898 0 0 0-.894.898v1.239h-.809Zm-.68 6.371 5.059 2.23-.348-4.269h.664v-1.422h-.492v-2.91h.492v-.836l-2.73-2.671v-.188a.258.258 0 0 0-.258-.258.255.255 0 0 0-.258.258v.188l-2.73 2.671v.836h.492v2.91h-.492v1.426h.781z" style="stroke:none;fill-rule:nonzero;fill:url(#f)"/></g></g><g clip-path="url(#g)"><g clip-path="url(#h)"><path d="m9.473 21.875 5.652 2.492-.086-1.039-5.488-2.414-.086.961" style="stroke:none;fill-rule:nonzero;fill:url(#i)"/></g></g><g clip-path="url(#j)"><g clip-path="url(#k)"><path d="m9.328 23.55 5.945 2.622-.085-1.035-5.782-2.547-.086.96" style="stroke:none;fill-rule:nonzero;fill:url(#l)"/></g></g><g clip-path="url(#m)"><g clip-path="url(#n)"><path d="m9.707 19.238-.086.961 5.36 2.36-.09-1.04-5.188-2.285" style="stroke:none;fill-rule:nonzero;fill:url(#o)"/></g></g><path d="m26.813 9.98 2.734-.878c-.008-.02-.016-.04-.027-.059a15.334 15.334 0 0 0-1.641-2.55L25.305 7.82c.566.649 1.062 1.36 1.48 2.11.012.015.016.03.027.047m1.512 5.183 2.848.203a15.253 15.253 0 0 0-.266-2.265l-2.875.097c.149.649.246 1.305.29 1.965M16.012 28.559c-6.922 0-12.551-5.63-12.551-12.551C3.46 9.09 9.094 3.46 16.01 3.46a12.465 12.465 0 0 1 6.75 1.977l1.997-2.079A15.295 15.295 0 0 0 16.012.625C7.532.625.629 7.527.629 16.012c0 8.484 6.902 15.383 15.383 15.383 7.246 0 13.332-5.043 14.953-11.797l-2.688-.934c-1.222 5.648-6.257 9.895-12.265 9.895" style="stroke:none;fill-rule:nonzero;fill:rgb(0%,0%,0%);fill-opacity:1"/><g clip-path="url(#p)"><g clip-path="url(#q)"><path d="M27.613 6.152a15.423 15.423 0 0 0-2.633-2.488c-.136-.105-.28-.203-.421-.3l-2 2.074-7.286 7.578L25.31 7.82l2.57-1.324c-.09-.113-.176-.23-.266-.34" style="stroke:none;fill-rule:nonzero;fill:url(#r)"/></g></g><g clip-path="url(#s)"><g clip-path="url(#t)"><path d="M31.191 15.887c0-.176-.011-.352-.02-.524l-2.847-.203-13.05-.937 12.8 4.441 2.692.934c.007-.032.02-.063.027-.094.266-1.145.402-2.317.402-3.492v-.121" style="stroke:none;fill-rule:nonzero;fill:url(#u)"/></g></g><g clip-path="url(#v)"><g clip-path="url(#w)"><path d="M30.773 12.438a15.127 15.127 0 0 0-1.226-3.336l-2.735.878-11.34 3.641 12.563-.426 2.88-.097a17.33 17.33 0 0 0-.142-.664" style="stroke:none;fill-rule:nonzero;fill:url(#x)"/></g></g></svg>
